X:31
T:See the Conquering Hero Comes
S:John Moore's Book 1
Z:Transcribed by Paul Barber-Riley  April 2016
M:C
L:1/8
K:G
F:http://www.vwml.org/record/Moore1/4493/p19
d4(B3c)|d4G4|(ABcd)c2B2|A8|
(Bcde) d2d2|g4d4|c2BA A3G|G8:|
BABc B2B2|A2BAG2G2|c2B2A2G2|F8|
e^def e2f2|g4e4|f2ed ^c3d|d8:|

